X:1
T:Gymnopédie No. 1 (theme)
C:Erik Satie
M:3/4
L:1/4
Q:1/4=60
K:G
D2 E | F2 G | A2 A | A3 | G2 F | E2 D | E2 F | G3 | A2 B | c3 | B2 A | A3 | G2 F | E2 D | D2 E | F3 |]
